/* XPM */
/* Felix, MIT license */
static const char *icon[] = {
"32 32 4 1",
". c None",
"b c #2255CC",
"l c #AEE1FF",
"w c #FFFFFF",
"................................",
"................................",
"................................",
"................................",
"............bbbbbbbb............",
"............bbbbbbbb............",
"..........bbwwwwwwwwbb..........",
"..........bbwwwwwwwwbb..........",
"........bbbbbbbbbbbbbbbb........",
"........bbbbbbbbbbbbbbbb........",
"......bbllllbbbbllllllbb........",
"......bbllllbbbbllllllbb........",
"....bbllllllbbbbllllllllllbb....",
"....bbllllllbbbbllllllllllbb....",
"....bbllllllbbbbllllllllllbb....",
"....bbllllllbbbbllllllllllbb....",
"....bbllllllllllllllllllllbb....",
"....bbllllllllllllllllllllbb....",
"....bbllllllwwwwwwwwllllllbb....",
"....bbllllllwwwwwwwwllllllbb....",
"....bbllllllllwwwwllllllllbb....",
"....bbllllllllwwwwllllllllbb....",
"....bbllllllllllllllllllllbb....",
"....bbllllllllllllllllllllbb....",
"....bbllllllllllllllllllllbb....",
"....bbllllllllllllllllllllbb....",
"....bbbbbbbbbbbbbbbbbbbbbbbb....",
"....bbbbbbbbbbbbbbbbbbbbbbbb....",
"................................",
"................................",
"................................",
"................................"
};
