/* XPM */
/* Felix, MIT license */
static const char *icon[] = {
"32 32 4 1",
". c None",
"b c #2255CC",
"l c #AEE1FF",
"w c #FFFFFF",
"................................",
"................................",
"................................",
"................................",
"........bbbbbbbbbbbbbbbb........",
"........bbbbbbbbbbbbbbbb........",
"........bbwwwwwwwwwwwwbbbb......",
"........bbwwwwwwwwwwwwbbbb......",
"........bbwwwwwwwwwwwwwwwwbb....",
"........bbwwwwwwwwwwwwwwwwbb....",
"........bbwwbbbbbbbbbbbbwwbb....",
"........bbwwbbbbbbbbbbbbwwbb....",
"........bbwwwwwwwwwwwwwwwwbb....",
"........bbwwwwwwwwwwwwwwwwbb....",
"........bbwwbbbbbbbbbbbbwwbb....",
"........bbwwbbbbbbbbbbbbwwbb....",
"........bbwwwwwwwwwwwwwwwwbb....",
"........bbwwwwwwwwwwwwwwwwbb....",
"........bbwwbbbbbbbbbbbbwwbb....",
"........bbwwbbbbbbbbbbbbwwbb....",
"........bbwwwwwwwwwwwwwwwwbb....",
"........bbwwwwwwwwwwwwwwwwbb....",
"........bbwwbbbbbbbbbbbbwwbb....",
"........bbwwbbbbbbbbbbbbwwbb....",
"........bbwwwwwwwwwwwwwwwwbb....",
"........bbwwwwwwwwwwwwwwwwbb....",
"........bbbbbbbbbbbbbbbbbbbb....",
"........bbbbbbbbbbbbbbbbbbbb....",
"................................",
"................................",
"................................",
"................................"
};
