/* XPM */
/* Felix, MIT license */
static const char *icon[] = {
"32 32 4 1",
". c None",
"b c #2255CC",
"l c #AEE1FF",
"w c #FFFFFF",
"................................",
"................................",
"................................",
"................................",
"........bbbb........bbbb........",
"........bbbb........bbbb........",
"........bbbb........bbbb........",
"........bbbb........bbbb........",
"........bbbb......wwwwwwww......",
"........bbbb......wwwwwwww......",
"......wwwwwwww......bbbb........",
"......wwwwwwww......bbbb........",
"........bbbb........bbbb........",
"........bbbb........bbbb........",
"........bbbb........bbbb........",
"........bbbb........bbbb........",
"........bbbb........bbbb........",
"........bbbb........bbbb........",
"........bbbb........bbbb........",
"........bbbb........bbbb........",
"........bbbb........bbbb........",
"........bbbb........bbbb........",
"......wwwwwwww......bbbb........",
"......wwwwwwww......bbbb........",
"........bbbb........bbbb........",
"........bbbb........bbbb........",
"........bbbb........bbbb........",
"........bbbb........bbbb........",
"................................",
"................................",
"................................",
"................................"
};
