/* XPM */
/* Felix, MIT license */
static const char *icon[] = {
"32 32 4 1",
". c None",
"b c #2255CC",
"l c #AEE1FF",
"w c #FFFFFF",
"................................",
"................................",
"................................",
"................................",
"....bbbbbbbbbbbbbbbbbbbbbbbb....",
"....bbbbbbbbbbbbbbbbbbbbbbbb....",
"....bbwwwwwwwwwwwwwwwwwwwwbb....",
"....bbwwwwwwwwwwwwwwwwwwwwbb....",
"....bbbbbbbbbbbbbbbbbbbbbbbb....",
"....bbbbbbbbbbbbbbbbbbbbbbbb....",
"....bb....................bb....",
"....bb....................bb....",
"....bb..bb................bb....",
"....bb..bb................bb....",
"....bb....bb..............bb....",
"....bb....bb..............bb....",
"....bb......bb............bb....",
"....bb......bb............bb....",
"....bb....bb..............bb....",
"....bb....bb..............bb....",
"....bb..bb....bbbbbbbb....bb....",
"....bb..bb....bbbbbbbb....bb....",
"....bb....................bb....",
"....bb....................bb....",
"....bb....................bb....",
"....bb....................bb....",
"....bbbbbbbbbbbbbbbbbbbbbbbb....",
"....bbbbbbbbbbbbbbbbbbbbbbbb....",
"................................",
"................................",
"................................",
"................................"
};
