/* XPM */
/* Felix, MIT license */
static const char *icon[] = {
"52 52 4 1",
". c None",
"b c #2255CC",
"l c #AEE1FF",
"w c #FFFFFF",
"bbbbbbbbbbbbbbbbbbbbbbbbbbbbbbbbbbbbbbbbbbbbbbbbbbbb",
"bllllllllllllllllllllllllllllllllllllllllllllllllllb",
"bllllllllllllllllllllllllllllllllllllllllllllllllllb",
"bllllllllllllllllllllllllllllllllllllllllllllllllllb",
"bllllllllllllllllllllllllllllllllllllllllllllllllllb",
"bllllllllllllllllllllllllllllllllllllllllllllllllllb",
"bllllllllllllllllllllllllllllllllllllllllllllllllllb",
"bllllllllllllllllllllllllllllllllllllllllllllllllllb",
"bllllllllllllllllllllllllllllllllllllllllllllllllllb",
"bllllllllllllllllllllllllllllllllllllllllllllllllllb",
"bllllllllllllllllllllllllllllllllllllllllllllllllllb",
"bllllllllllllllllllllllllllllllllllllllllllllllllllb",
"bllllllllllllllllllllllllllllllllllllllllllllllllllb",
"bllllllllllllllllllllllllllllllllllllllllllllllllllb",
"bllllllllllllllllllllllllllllllllllllllllllllllllllb",
"bllllllllllllllllllllllllllllllllllllllllllllllllllb",
"bllllllllllllllllllllllllllllllllllllllllllllllllllb",
"bllllllllllllllllllllllllllllllllllllllllllllllllllb",
"bllllllllllllllllllllllllllllllllllllllllllllllllllb",
"bllllllllllllllllllllllllllllllllllllllllllllllllllb",
"bllllllllllllllllllllllllllllllllllllllllllllllllllb",
"bllllllllllllllllllllllllllllllllllllllllllllllllllb",
"bllllllllllllllllllllllllllllllllllllllllllllllllllb",
"bllllllllllllllllllllllllllllllllllllllllllllllllllb",
"bllllllllllllllllllllllllllllllllllllllllllllllllllb",
"bllllllllllllllllllllllllllllllllllllllllllllllllllb",
"bllllllllllllllllllllllllllllllllllllllllllllllllllb",
"bllllllllllllllllllllllllllllllllllllllllllllllllllb",
"bllllllllllllllllllllllllllllllllllllllllllllllllllb",
"bllllllllllllllllllllllllllllllllllllllllllllllllllb",
"bllllllllllllllllllllllllllllllllllllllllllllllllllb",
"bllllllllllllllllllllllllllllllllllllllllllllllllllb",
"bllllllllllllllllllllllllllllllllllllllllllllllllllb",
"bllllllllllllllllllllllllllllllllllllllllllllllllllb",
"bllllllllllllllllllllllllllllllllllllllllllllllllllb",
"bllllllllllllllllllllllllllllllllllllllllllllllllllb",
"bllllllllllllllllllllllllllllllllllllllllllllllllllb",
"bllllllllllllllllllllllllllllllllllllllllllllllllllb",
"bllllllllllllllllllllllllllllllllllllllllllllllllllb",
"bllllllllllllllllllllllllllllllllllllllllllllllllllb",
"bllllllllllllllllllllllllllllllllllllllllllllllllllb",
"bllllllllllllllllllllllllllllllllllllllllllllllllllb",
"bllllllllllllllllllllllllllllllllllllllllllllllllllb",
"bllllllllllllllllllllllllllllllllllllllllllllllllllb",
"bllllllllllllllllllllllllllllllllllllllllllllllllllb",
"bllllllllllllllllllllllllllllllllllllllllllllllllllb",
"bllllllllllllllllllllllllllllllllllllllllllllllllllb",
"bllllllllllllllllllllllllllllllllllllllllllllllllllb",
"bllllllllllllllllllllllllllllllllllllllllllllllllllb",
"bllllllllllllllllllllllllllllllllllllllllllllllllllb",
"bllllllllllllllllllllllllllllllllllllllllllllllllllb",
"bbbbbbbbbbbbbbbbbbbbbbbbbbbbbbbbbbbbbbbbbbbbbbbbbbbb"
};
